assets/img/braze_icons/arrows-right.svg

<svg fill="none" height="24" viewBox="0 0 24 24" width="24" xmlns="http://www.w3.org/2000/svg"><g fill="#801ed7"><path d="m11.7071 2.29289c-.3905-.39052-1.0237-.39052-1.4142 0-.39053.39053-.39053 1.02369 0 1.41422l2.2929 2.29289h-8.5858c-.55228 0-1 .44772-1 1s.44772 1 1 1h8.5858l-2.2929 2.2929c-.39053.3905-.39053 1.0237 0 1.4142.3905.3905 1.0237.3905 1.4142 0l4-3.99999c.3905-.39053.3905-1.02369 0-1.41422z"/><path d="m3 17c0-.5523.44772-1 1-1h13.5858l-2.2929-2.2929c-.3905-.3905-.3905-1.0237 0-1.4142s1.0237-.3905 1.4142 0l4 4c.3905.3905.3905 1.0237 0 1.4142l-4 4c-.3905.3905-1.0237.3905-1.4142 0s-.3905-1.0237 0-1.4142l2.2929-2.2929h-13.5858c-.55228 0-1-.4477-1-1z"/></g></svg>

<svg width="24" height="24" viewBox="0 0 24 24" fill="none" xmlns="http://www.w3.org/2000/svg">
<path d="M11.7071 2.29289C11.3166 1.90237 10.6834 1.90237 10.2929 2.29289C9.90237 2.68342 9.90237 3.31658 10.2929 3.70711L12.5858 6H4C3.44772 6 3 6.44772 3 7C3 7.55228 3.44772 8 4 8H12.5858L10.2929 10.2929C9.90237 10.6834 9.90237 11.3166 10.2929 11.7071C10.6834 12.0976 11.3166 12.0976 11.7071 11.7071L15.7071 7.70711C16.0976 7.31658 16.0976 6.68342 15.7071 6.29289L11.7071 2.29289Z" fill="#801ED7"/>
<path d="M3 17C3 16.4477 3.44772 16 4 16H17.5858L15.2929 13.7071C14.9024 13.3166 14.9024 12.6834 15.2929 12.2929C15.6834 11.9024 16.3166 11.9024 16.7071 12.2929L20.7071 16.2929C21.0976 16.6834 21.0976 17.3166 20.7071 17.7071L16.7071 21.7071C16.3166 22.0976 15.6834 22.0976 15.2929 21.7071C14.9024 21.3166 14.9024 20.6834 15.2929 20.2929L17.5858 18H4C3.44772 18 3 17.5523 3 17Z" fill="#801ED7"/>
</svg>
